X: 14452
T: Game Cock, The
R: slide
M: 12/8
K: Dmajor
|:E|F2 A d2 A BAB d2 A|BAF A2 F E3 E2 D/E/|
F2 A d2 A BAB d2 A|Bcd A2 F D3 D2:|
e|f3 f2 e d2 e f2 g|a2 f def e3 e2 g|
f3 f2 e d2 e f2 A|Bcd A2 F D3 D2 e|
f3 f2 e d2 e f2 g|a2 f def e3 A2 d|
fef a2 f ede f2 A|Bcd A2 F D3 D2||

